X:1
T:Title
%%score [ ( 1 2 ) ( 3 4 ) ]
L:1/8
Q:1/4=120
M:4/4
K:C
V:1 treble nm="Midi_74"
V:2 treble 
V:3 treble nm="Midi_74"
V:4 treble 
V:1
 G8 | A4 G4 | G8 || G8 | A4 B4 | c4 c4 | B8 || A8 | _B4 A4 | A8 || A8 | B4 c4 | %12
 c4"^Richard Thiele\n(1847-1903)" B4 | c8 |] %14
V:2
 E8 | F4 E4 | D8 || E8 | E4 E4 | E4 ^F4 | G8 || F8 | G4 F4 | E8 || F8 | F4 E4 | A4 (G2 F2) | E8 |] %14
V:3
 C8 | C4 C4 | B,8 || C8 | C4 D4 | C4 C4 | D8 || D8 | D4 D4 | ^C8 || D8 | D4 C4 | D4 D4 | C8 |] %14
V:4
 C,8 | F,4 C,4 | G,8 || C,8 | A,,4 ^G,,4 | A,,4 D,4 | G,,8 || D,8 | G,4 D,4 | A,8 || D,8 | %11
 G,4 A,4 | F,4 G,4 | [C,G,]8 |] %14

